X: 41
T:Masons() Song  Quick Step. JMP.041
T:Yorkshire Lasses,aka. JMP.041
M:6/8
L:1/8
Q:110
C:Yorkshire Lasses,aka.
S:John Miller MS. Perth, 1799.(for the fife)
R:March
O:Scotland
A:Perth
N:Double bar is shown as having dots either side  of it.  In other words,
N:there is a B music somewhere.
N:Key is probably given as G major - photocopy very dark
H:1799
Z:vmp.C. Graebe
K:D Major
"See note re key"A2 | dAG FGA | Aed cBA | dcd efg | agf edc |!
 dAG FGA | Bed cBA | dcd efg | fdd d2 :|]
